X: 1
T: Glencar, The
M: 4/4
L: 1/8
R: reel
K: Ador
|:d|eA~A2 BGAG|EGDE GABG|A2BA GABd|eaaf gedg|
eA~A2 BdAG|EGDE GABG|A2BA GABd|eBdB A3:|
|:d|ea~a2 aged|Bg~g2 gedg|eaaf ~g3e|dcBG A2Bd|
ea~a2 aged|BGEF GABG|A2Bd ea~a2|gedB A3:|
